X: 01111
T: Cumberland Reel
R: jig
B: RSCDS 1-11
Z: John Chambers <jc:trillian.mit.edu>
M: 6/8
L: 1/8
%--------------------
K: D
|: A \
| "D"f2e d2c | "G"d2B "D"A2F | "Em"G>FG "A7"EFG | "D"F2G A2A \
| "G"B2G d2B | "D"A2F d2d | "A7"c>de ABc | "D"d3- d2 :|
d/e/ \
| "D"f2f f2d/e/ | f2f fde | "Bm"f2f g2f | "Em"~e2e "A7"e2c \
| "Bm"d2d d2B/c/ | d2d dBc | "E7"d2B e2d | "A7"c2B ABc ||
y2 \
| "D"d2d "A7"cBA | "G"B2c "D"d2A | "D"d>ed "A7"cBA | "G"B2c "D"d2f \
| "A7"~e2e ~e2e | ~e2e efg | "(D)"a2A "A7"ABc | "D"d3- d2 |]
%%center Book01/01111-Cumberland_Reel-1.abc

%%sep 1 1 500
%%sep 1 1 500

